X:1
T: Jacky's Return
C:
R:Jig
Q:180
K:F
M:6/8
L:1/16
|:(3cde|f4F2 F4A2|B4d2 G4B2|A2G2F2 c2B2A2|A6 G4(3cde|
f4F2 F4A2|B4d2 G4B2|A2G2F2 c2B2A2|G6F6|
c2d2c2 f4g2|a4f2 f6|d2e2f2 c2B2A2|B4G2 G4c2|
f2c2f2 a2f2a2|c'2a2f2 d'6|a2f2d2 c2A2F2|G4F2 F4:|
